svgs/sharp-solid/diagram-sankey.svg

<svg xmlns="http://www.w3.org/2000/svg" viewBox="0 0 576 512"><!--! Font Awesome Pro 6.6.0 by @fontawesome - https://fontawesome.com License - https://fontawesome.com/license (Commercial License) Copyright 2024 Fonticons, Inc. --><path d="M304 32l16 0 224 0 32 0 0 64-32 0L336 96 249.6 211.2 240 224l-16 0L32 224 0 224l0-64 32 0 176 0L294.4 44.8 304 32zM141.9 320L32 320 0 320l0-64 32 0 512 0 32 0 0 64-32 0-327.5 0 57.6 96L544 416l32 0 0 64-32 0-288 0-18.1 0-9.3-15.5L141.9 320z"/></svg>

<svg xmlns="http://www.w3.org/2000/svg" viewBox="0 0 576 512"><!--! Font Awesome Pro 6.4.2 by @fontawesome - https://fontawesome.com License - https://fontawesome.com/license (Commercial License) Copyright 2023 Fonticons, Inc. --><path d="M304 32h16H544h32V96H544 336L249.6 211.2 240 224H224 32 0V160H32 208L294.4 44.8 304 32zM141.9 320H32 0V256H32 544h32v64H544 216.5l57.6 96H544h32v64H544 256 237.9l-9.3-15.5L141.9 320z"/></svg>
